svg/LeftHanded/grabbing.svg

<?xml version="1.0" encoding="UTF-8" standalone="no"?>
<!-- Created with Inkscape (http://www.inkscape.org/) -->

<svg
   xmlns:dc="http://purl.org/dc/elements/1.1/"
   xmlns:cc="http://creativecommons.org/ns#"
   xmlns:rdf="http://www.w3.org/1999/02/22-rdf-syntax-ns#"
   xmlns:svg="http://www.w3.org/2000/svg"
   xmlns="http://www.w3.org/2000/svg"
   xmlns:xlink="http://www.w3.org/1999/xlink"
   version="1.0"
   width="500"
   height="500"
   viewBox="0 0 1000 1000"
   id="page"
   xml:space="preserve"><metadata
     id="metadata14"><rdf:RDF><cc:Work
         rdf:about=""><dc:format>image/svg+xml</dc:format><dc:type
           rdf:resource="http://purl.org/dc/dcmitype/StillImage" /><dc:title></dc:title></cc:Work></rdf:RDF></metadata><defs
     id="defs38"><linearGradient
       id="linearGradient1307"><stop
         id="stop1309"
         style="stop-color:#999999;stop-opacity:1"
         offset="0" /><stop
         id="stop1311"
         style="stop-color:#555555;stop-opacity:1"
         offset="1" /></linearGradient><linearGradient
       x1="252.50525"
       y1="257.1369"
       x2="252.50525"
       y2="730.68188"
       id="linearGradient1313"
       xlink:href="#linearGradient1307"
       gradientUnits="userSpaceOnUse"
       gradientTransform="translate(-6.708428e-6,0)" /><linearGradient
       x1="252.50525"
       y1="257.1369"
       x2="252.50525"
       y2="730.68188"
       id="linearGradient1313-7"
       xlink:href="#linearGradient1307-0"
       gradientUnits="userSpaceOnUse"
       gradientTransform="translate(-6.708428e-6,0)" /><linearGradient
       id="linearGradient1307-0"><stop
         id="stop1309-8"
         style="stop-color:#999999;stop-opacity:1"
         offset="0" /><stop
         id="stop1311-6"
         style="stop-color:#555555;stop-opacity:1"
         offset="1" /></linearGradient><filter
       x="-0.2345823"
       y="-0.24567385"
       width="1.4691646"
       height="1.4913477"
       color-interpolation-filters="sRGB"
       id="filter3793"><feGaussianBlur
         id="feGaussianBlur3795"
         stdDeviation="46.426723" /></filter></defs><path
     d="m -181.67234,666.63125 c 13.42,-21.415 21.2304,-66.98758 25.0062,-91.90362 4.5674,-30.13945 7.1381,-33.4173 4.4404,-57.30332 -7.564,-18.136 -16.3872,-31.44992 -36.4392,-40.19078 -12.418,-6.22329 -41.9467,-1.6953 -53.1959,6.00003 -10.1165,11.835 -23.2285,30.16169 -20.1285,59.33069 -4.636,-27.545 -3.9675,-39.49474 -13.7965,-51.87974 -8.509,-10.722 -23.1245,-22.47727 -41.7485,-21.01927 -16.075,1.259 -41.12,10.95801 -50.454,39.89901 -3.5,10.851 -3.616,39.744 4,60 -9.391,-30.737 -45,-57 -68,-54 -27.614,3.602 -49.031,11.75 -51,46 -0.878,15.277 14.034,48.847 20,63 -12.885,-14.541 -48.451,-22.402 -64,-16 -17.00001,7 -23.78701,28.084 -27.00001,57 -2,18 2.312,70.709 13,103 6.371,19.24497 23.04101,53.52097 38.00001,79.99997 9.595,16.984 22.117,32.599 37,45 20.629,17.19 41.905,25.447 67.3,27.63 30.605,2.633 61.664,2.855 92.207,-1.498 40.453,-5.766 77.122,-19.684 111.247,-44.924 38.259,-28.298 69.9,-88.91 91.421,-125.80397 23.311999,-39.966 26.379999,-64.939 23.381999,-93.646 -1.976,-18.916 -13.854,-43.91 -26.670999,-49.886 -13.89,-6.478 -32.76,-12.787 -46.992,-6.309"
     transform="matrix(1.2,0,0,1.2,880.36235,-221.66806)"
     id="path1402-8"
     style="opacity:0.15;fill:#111111;fill-opacity:1;stroke:none;filter:url(#filter3793)" /><path
     d="m 635.29628,464.22609 c 13.42,-21.415 21.23039,-66.98758 25.00622,-91.90362 4.5674,-30.13945 7.13811,-33.4173 4.4404,-57.30332 -7.564,-18.136 -16.38723,-31.44992 -36.43923,-40.19078 -12.41799,-6.22329 -41.9467,-1.6953 -53.19587,6.00003 -10.11652,11.835 -23.22852,30.16169 -20.12852,59.33069 -4.636,-27.545 -3.96752,-39.49474 -13.79652,-51.87974 -8.509,-10.722 -23.12448,-22.47727 -41.74848,-21.01927 -16.075,1.259 -41.12,10.95801 -50.454,39.89901 -3.5,10.851 -3.616,39.744 4,60 -9.391,-30.737 -45,-57 -68,-54 -27.614,3.602 -49.031,11.75 -51,46 -0.878,15.277 14.034,48.847 20,63 -12.885,-14.541 -48.451,-22.402 -64,-16 -17,7 -23.787,28.084 -27,57 -2,18 2.312,70.709 13,103 6.371,19.245 23.041,53.521 38,80 9.595,16.984 22.117,32.599 37,45 20.629,17.19 41.905,25.447 67.3,27.63 30.605,2.633 61.664,2.855 92.207,-1.498 40.453,-5.766 77.122,-19.684 111.247,-44.924 38.259,-28.298 69.9,-88.91 91.421,-125.804 23.312,-39.966 26.38,-64.939 23.382,-93.646 -1.976,-18.916 -13.854,-43.91 -26.671,-49.886 -13.89,-6.478 -32.76,-12.787 -46.992,-6.309"
     id="path1402"
     style="opacity:0.75;fill:url(#linearGradient1313);fill-opacity:1;stroke:#000000;stroke-width:20;stroke-linecap:round;stroke-linejoin:round" /><path
     d="m 438.86021,507.79571 c 0,43.01075 17.68817,94.37634 17.68817,94.37634"
     id="path1391"
     style="opacity:0.75;fill:none;stroke:#000000;stroke-width:20;stroke-linecap:round;stroke-linejoin:round" /><path
     d="m 362.23655,553.17205 c 1.34409,30.91398 29,66 29,66"
     id="path1393"
     style="opacity:0.75;fill:none;stroke:#000000;stroke-width:20;stroke-linecap:round;stroke-linejoin:round" /><path
     d="m 527.23655,507.17205 c -8.06452,30.91398 3,84 3,84"
     id="path1395"
     style="opacity:0.75;fill:none;stroke:#000000;stroke-width:20;stroke-linecap:round;stroke-linejoin:round" /></svg>

<?xml version="1.0" encoding="UTF-8" standalone="no"?>
<!-- Created with Inkscape (http://www.inkscape.org/) -->
<svg
   xmlns:svg="http://www.w3.org/2000/svg"
   xmlns="http://www.w3.org/2000/svg"
   xmlns:xlink="http://www.w3.org/1999/xlink"
   version="1.0"
   width="500"
   height="500"
   viewBox="0 0 1000 1000"
   id="page"
   xml:space="preserve"><defs
     id="defs38"><linearGradient
       id="linearGradient1307"><stop
         id="stop1309"
         style="stop-color:#999999;stop-opacity:1"
         offset="0" /><stop
         id="stop1311"
         style="stop-color:#555555;stop-opacity:1"
         offset="1" /></linearGradient><linearGradient
       x1="252.50525"
       y1="257.1369"
       x2="252.50525"
       y2="730.68188"
       id="linearGradient1313"
       xlink:href="#linearGradient1307"
       gradientUnits="userSpaceOnUse"
       gradientTransform="translate(-6.708428e-6,0)" /></defs><path
     d="M 635.29628,464.22609 C 648.71628,442.81109 656.52667,397.23851 660.3025,372.32247 C 664.8699,342.18302 667.44061,338.90517 664.7429,315.01915 C 657.1789,296.88315 648.35567,283.56923 628.30367,274.82837 C 615.88568,268.60508 586.35697,273.13307 575.1078,280.8284 C 564.99128,292.6634 551.87928,310.99009 554.97928,340.15909 C 550.34328,312.61409 551.01176,300.66435 541.18276,288.27935 C 532.67376,277.55735 518.05828,265.80208 499.43428,267.26008 C 483.35928,268.51908 458.31428,278.21809 448.98028,307.15909 C 445.48028,318.01009 445.36428,346.90309 452.98028,367.15909 C 443.58928,336.42209 407.98028,310.15909 384.98028,313.15909 C 357.36628,316.76109 335.94928,324.90909 333.98028,359.15909 C 333.10228,374.43609 348.01428,408.00609 353.98028,422.15909 C 341.09528,407.61809 305.52928,399.75709 289.98028,406.15909 C 272.98028,413.15909 266.19328,434.24309 262.98028,463.15909 C 260.98028,481.15909 265.29228,533.86809 275.98028,566.15909 C 282.35128,585.40409 299.02128,619.68009 313.98028,646.15909 C 323.57528,663.14309 336.09728,678.75809 350.98028,691.15909 C 371.60928,708.34909 392.88528,716.60609 418.28028,718.78909 C 448.88528,721.42209 479.94428,721.64409 510.48728,717.29109 C 550.94028,711.52509 587.60928,697.60709 621.73428,672.36709 C 659.99328,644.06909 691.63428,583.45709 713.15528,546.56309 C 736.46728,506.59709 739.53528,481.62409 736.53728,452.91709 C 734.56128,434.00109 722.68328,409.00709 709.86628,403.03109 C 695.97628,396.55309 677.10628,390.24409 662.87428,396.72209"
     id="path1402"
     style="opacity:1;fill:url(#linearGradient1313);fill-opacity:1;stroke:#000000;stroke-width:20;stroke-linecap:round;stroke-linejoin:round" /><path
     d="M 438.86021,507.79571 C 438.86021,550.80646 456.54838,602.17205 456.54838,602.17205"
     id="path1391"
     style="opacity:1;fill:none;stroke:#000000;stroke-width:20;stroke-linecap:round;stroke-linejoin:round" /><path
     d="M 362.23655,553.17205 C 363.58064,584.08603 391.23655,619.17205 391.23655,619.17205"
     id="path1393"
     style="opacity:1;fill:none;stroke:#000000;stroke-width:20;stroke-linecap:round;stroke-linejoin:round" /><path
     d="M 527.23655,507.17205 C 519.17203,538.08603 530.23655,591.17205 530.23655,591.17205"
     id="path1395"
     style="opacity:1;fill:none;stroke:#000000;stroke-width:20;stroke-linecap:round;stroke-linejoin:round" /></svg>
